!! 00048] TT[00
!! NN
!!!OTL: Bayue shiwu kan yueguang
!!!ARE: Asia, China, Fujian, Jongding
!! Ethnic Group: Han
!! II, 611
!!!SCT: C0270
!!!YEM: Copyright 1995, estate of Helmut Schaffrath.
**kern
*ICvox
*Ivox
*M2/4
*k[]
*C:
{8a
16a
16cc
8dd
8dd
=1
8cc
16a
16cc
8dd
[8cc
=2
2cc]}
=3
{8dd
8dd
8cc
16a
16cc
=4
8dd
16cc
16a
16g
16a
[8a
=5
2a]}
=6
{8a
8a
8dd
8dd
=7
8cc
16a
16dd
8dd
[8a
=8
2a]}
=9
{8a
8a
8dd
8dd
=10
8cc
16a
16g
8a
[8g
=11
2g]}
==
!!!AGN: Shange. Biaoda aiqing
!! am typischsten fuer keren. Aehnlich wie II, 588
!!    Haupttoene: 6-1-2-(5)
!!    Wenig Verzierungen.
!!!ONB: ESAC (Essen Associative Code) Database: CHINA
!!!AMT: simple duple
!!!AIN: vox
!!!EED: Helmut Schaffrath
!!!EEV: 1.0
*-
!!!ONB: Tied note syntax fixed by Craig Sapp, 2004/05/03/
